svgs/sharp-solid/dagger.svg

<svg xmlns="http://www.w3.org/2000/svg" viewBox="0 0 384 512"><!--! Font Awesome Pro 6.6.0 by @fontawesome - https://fontawesome.com License - https://fontawesome.com/license (Commercial License) Copyright 2024 Fonticons, Inc. --><path d="M224 0l0 32 0 96 80 0 32 0 48 0 0 48c0 26.5-21.5 48-48 48c-20.9 0-38.7-13.4-45.3-32L192 192l-98.7 0c-6.6 18.6-24.4 32-45.3 32c-26.5 0-48-21.5-48-48l0-48 48 0 32 0 80 0 0-96 0-32 64 0zM128 224l128 0 0 208-64 80-64-80 0-208z"/></svg>

<svg xmlns="http://www.w3.org/2000/svg" viewBox="0 0 384 512"><!--! Font Awesome Pro 6.4.0 by @fontawesome - https://fontawesome.com License - https://fontawesome.com/license (Commercial License) Copyright 2023 Fonticons, Inc. --><path d="M224 0V32v96h80 32 48v48c0 26.5-21.5 48-48 48c-20.9 0-38.7-13.4-45.3-32H192 93.3c-6.6 18.6-24.4 32-45.3 32c-26.5 0-48-21.5-48-48V128H48 80h80V32 0h64zM128 224H256V432l-64 80-64-80V224z"/></svg>
